dist/assets/images/sprite-icons/money.svg

<svg width="56" height="56" viewBox="0 0 56 56" fill="none" xmlns="http://www.w3.org/2000/svg">
<path d="M24.7287 32.5357V30.6071H27.3002V24.8214H27.26C26.9386 25.3237 26.6372 25.5446 26.1551 25.9665L24.6082 24.3594L27.5814 21.6071H29.8716V30.6071H32.443V32.5357H24.7287ZM35.0145 27.3928C35.0145 23.7366 32.8046 19.0357 28.5859 19.0357C24.3671 19.0357 22.1573 23.7366 22.1573 27.3928C22.1573 31.0491 24.3671 35.75 28.5859 35.75C32.8046 35.75 35.0145 31.0491 35.0145 27.3928ZM45.3002 32.5357C42.4676 32.5357 40.1573 34.846 40.1573 37.6786H17.0145C17.0145 34.846 14.7042 32.5357 11.8716 32.5357V22.25C14.7042 22.25 17.0145 19.9397 17.0145 17.1071H40.1573C40.1573 19.9397 42.4676 22.25 45.3002 22.25V32.5357ZM47.8716 15.8214C47.8716 15.1183 47.289 14.5357 46.5859 14.5357H10.5859C9.88276 14.5357 9.30017 15.1183 9.30017 15.8214V38.9643C9.30017 39.6674 9.88276 40.25 10.5859 40.25H46.5859C47.289 40.25 47.8716 39.6674 47.8716 38.9643V15.8214Z" fill="white"/>
</svg>

<svg width="56" height="56" fill="none" xmlns="http://www.w3.org/2000/svg"><path d="M24.729 32.536v-1.929H27.3v-5.786h-.04c-.321.503-.623.724-1.105 1.145l-1.547-1.607 2.973-2.752h2.29v9h2.572v1.929h-7.714zm10.285-5.143c0-3.656-2.21-8.357-6.428-8.357-4.219 0-6.429 4.7-6.429 8.357 0 3.656 2.21 8.357 6.429 8.357s6.428-4.7 6.428-8.357zM45.3 32.536a5.153 5.153 0 00-5.143 5.143H17.015a5.153 5.153 0 00-5.143-5.143V22.25a5.153 5.153 0 005.143-5.143h23.142A5.153 5.153 0 0045.3 22.25v10.286zm2.572-16.715c0-.703-.583-1.285-1.286-1.285h-36c-.703 0-1.286.582-1.286 1.285v23.143c0 .703.583 1.286 1.286 1.286h36c.703 0 1.286-.583 1.286-1.286V15.821z" fill="#fff"/></svg>
